packages/core/src/svgs/tokens/mono/COMBO.svg

<svg width="24" height="24" viewBox="0 0 24 24" fill="none" xmlns="http://www.w3.org/2000/svg">
<path d="M11.4418 2.14881C11.6106 2.05132 11.8023 2 11.9972 2C12.1922 2 12.3838 2.05132 12.5526 2.14881L12.7803 2.28211L12.2805 3.27627H12.2749C12.1905 3.22753 12.0946 3.20186 11.9972 3.20186C11.8997 3.20186 11.804 3.22753 11.7195 3.27627H11.7085L11.1863 2.29878L11.4473 2.14881H11.4418ZM10.1366 2.8986L10.7198 3.84277L9.6145 4.47593L9.09803 3.49287L10.1366 2.8986ZM8.04278 4.09826L6.99863 4.69808L7.51515 5.67559L8.63706 5.03687L8.04833 4.0927L8.04278 4.09826ZM5.94338 5.29791L6.5321 6.24209L5.44352 6.85859L4.93811 5.87553L5.93782 5.29791H5.94338ZM3.8884 6.47535L3.66624 6.59755C3.49674 6.69541 3.35609 6.83633 3.25856 7.00604C3.16103 7.17574 3.11007 7.36821 3.11085 7.56393V8.11378H4.34383C4.40751 7.93703 4.49337 7.76906 4.59931 7.61392L3.8884 6.47535ZM13.2913 3.85389L14.4132 4.49815L14.9297 3.51509L13.8633 2.90416L13.2913 3.85389ZM16.5459 5.71446L15.3963 5.0591L15.985 4.11491L17.0624 4.73141L16.5459 5.71446ZM17.529 6.27542L18.5009 6.83081L19.0618 5.87553L18.1177 5.33679L17.529 6.28096V6.27542ZM19.6505 8.11378C19.5895 7.94142 19.5075 7.77727 19.4063 7.62504L20.1171 6.48091L20.3226 6.59755C20.4932 6.6947 20.6349 6.83532 20.7334 7.00508C20.832 7.17483 20.8837 7.36765 20.8836 7.56393V8.11378H19.6505ZM3.11085 9.22457V10.3354H4.22165V9.22457H3.11085ZM3.11085 12.557V11.4461H4.22165V12.557H3.11085ZM3.11085 13.6677V14.7786H4.22165V13.6677H3.11085ZM3.11085 16.4448V15.8893H4.22165V16.1226C4.22165 16.3225 4.33273 16.5058 4.49934 16.6058L4.52712 16.6224L3.97172 17.5778L3.6718 17.4056C3.50126 17.3084 3.3595 17.1677 3.26097 16.9981C3.16243 16.8283 3.11064 16.6355 3.11085 16.4392V16.4448ZM4.95477 18.1387L6.04335 18.7607L6.62652 17.8166L5.5435 17.2056L4.95477 18.1387ZM8.14831 19.9659L7.00974 19.3161L7.57625 18.3609L8.73148 19.0273L8.14831 19.9659ZM9.12026 20.5213L10.1977 21.1378L10.7754 20.1936L9.69225 19.5716L9.12026 20.5213ZM11.4473 21.8543L11.1586 21.6877L11.7917 20.5435C11.9266 20.5559 12.0622 20.5559 12.1971 20.5435L12.8692 21.6655L12.5471 21.8543C12.3795 21.9497 12.19 22 11.9972 22C11.8044 22 11.6149 21.9497 11.4473 21.8543ZM13.8522 21.1045L14.9353 20.488L14.3855 19.5217L13.3135 20.1326L13.8522 21.1045ZM17.0402 19.2828L15.9127 19.927L15.3907 18.9495L16.4681 18.3386L17.0402 19.2828ZM18.0232 18.7218L19.1007 18.1054L18.4954 17.1723L17.4957 17.7443L18.0232 18.7218ZM20.3282 17.4056L20.1005 17.5389L19.5339 16.5835C19.6093 16.5326 19.671 16.4639 19.7137 16.3836C19.7563 16.3032 19.7785 16.2136 19.7783 16.1226V15.8893H20.8891V16.4448C20.8889 16.6395 20.8375 16.8308 20.74 16.9995C20.6426 17.1681 20.5024 17.3082 20.3338 17.4056H20.3282ZM20.8836 14.7786H19.7727V13.6677H20.8836V14.7786ZM19.7727 12.557H20.8836V11.4461H19.7727V12.557ZM20.8836 10.3354H19.7727V9.22457H20.8836V10.3354ZM6.73759 8.5581L5.53794 7.85274L5.09362 8.59698L6.29328 9.29678L6.73759 8.55254V8.5581ZM9.17579 9.89099L7.97613 9.1968L7.53181 9.94101L8.73148 10.6408L9.17579 9.89656V9.89099ZM10.3866 10.6408L11.5862 11.3406L11.1419 12.0904L9.94224 11.3851L10.3866 10.6408ZM17.2012 8.55254L18.4009 7.85274L18.8453 8.59698L17.6456 9.29678L17.2012 8.55254ZM15.9683 9.1968L14.7687 9.89656L15.2129 10.6408L16.4071 9.94101L15.9627 9.1968H15.9683ZM12.3582 11.3406L13.5523 10.6408L13.9967 11.3851L12.797 12.0904L12.3527 11.3406H12.3582ZM12.5526 12.0015H11.4418V13.1124H12.5526V12.0015ZM12.5526 14.212H11.4418V15.3339H12.5526V14.212ZM11.4418 17.5555V16.4448H12.5526V17.5555H11.4418ZM11.4418 18.6664V19.7771H12.5526V18.6664H11.4418Z" fill="white"/>
</svg>

<svg xmlns="http://www.w3.org/2000/svg" width="24" height="24" fill="none" viewBox="0 0 24 24">
    <path fill="#fff" d="M11.442 2.149a1.11 1.11 0 0 1 1.11 0l.228.133-.5.994h-.005a.56.56 0 0 0-.556 0h-.01l-.523-.977.261-.15zm-1.305.75.583.944-1.106.633-.516-.983zm-2.094 1.2-1.044.6.516.977 1.122-.64-.589-.943zm-2.1 1.199.59.944-1.09.617-.505-.983 1-.578zM3.888 6.475l-.222.123a1.11 1.11 0 0 0-.555.966v.55h1.233q.097-.266.255-.5zm9.403-2.621 1.122.644.517-.983-1.067-.61zm3.255 1.86-1.15-.655.589-.944 1.077.616zm.983.561.972.556.56-.955-.943-.54-.589.945zm2.122 1.839a2.2 2.2 0 0 0-.245-.489l.711-1.144.206.117a1.11 1.11 0 0 1 .56.966v.55zM3.11 9.224v1.111h1.11v-1.11zm0 3.333v-1.11h1.11v1.11zm0 1.11v1.112h1.11v-1.111zm0 2.778v-.556h1.11v.234c0 .2.112.383.278.483l.028.016-.555.956-.3-.172a1.11 1.11 0 0 1-.561-.967zm1.844 1.694 1.088.622.584-.944-1.083-.611zm3.193 1.827-1.138-.65.566-.955 1.155.666zm.972.555 1.078.617.577-.944-1.083-.622zm2.327 1.333-.288-.166.633-1.144q.203.018.405 0l.672 1.122-.322.188a1.11 1.11 0 0 1-1.1 0m2.405-.75 1.083-.616-.55-.966-1.072.61zm3.188-1.821-1.127.644-.522-.977 1.077-.611zm.983-.561 1.078-.617-.606-.933-1 .572zm2.305-1.316-.227.133-.567-.956a.56.56 0 0 0 .244-.46v-.234h1.111v.556a1.11 1.11 0 0 1-.555.96zm.556-2.627h-1.111v-1.111h1.11zm-1.111-2.222h1.11v-1.11h-1.11zm1.11-2.222h-1.11v-1.11h1.11zM6.739 8.558l-1.2-.705-.444.744 1.2.7.444-.744zm2.438 1.333-1.2-.694-.444.744 1.2.7.444-.744zm1.21.75 1.2.7-.444.75-1.2-.706zm6.815-2.088 1.2-.7.444.744-1.2.7zm-1.233.644-1.2.7.445.744 1.194-.7-.444-.744zm-3.61 2.144 1.194-.7.445.744-1.2.705-.444-.75zm.195.66h-1.111v1.111h1.11zm0 2.211h-1.111v1.122h1.11zm-1.111 3.343v-1.11h1.11v1.11zm0 1.111v1.111h1.11v-1.11z"/>
</svg>
